X:1     %Music
B:Patterson, D W, 1979, The Shaker Spiritual, Princeton University Press, New Jersey
Z:Daniel W Patterson
F:http://www.folkinfo.org/songs
T:To All the Good Children, A Happy New Year
Q:1/4=113
M:2/4     %Meter
L:1/16     %
K:G
(A6Bc) |[M:3/4][L:1/8] d2 A2 ((3:2ABc) |d2 A2 A2 |{E}F2 D2 D2 | D4
w:To_*  all the good__ child-ren, a hap-py new year:
 ((3:2ABc) |d2 A2 ((3:2ABc) |d2 e2 =f2 |f2 d2 e2 | d4
w:We__ wish you a__ bless-ing, we wish you good cheer.
F2 |:G2 G2 G2 |{G}B2 B2 B2 |c2 A2 (Bc) | d4
w:Be pru-dent and care-ful, and keep your-selves_ clear;
F2 |G2 A2 (Bc) |d2 A2 A2 |E2 D2 D2 |1
w:Be faith-ful and_ cheer-ful thru-out the whole
D4 ((3:2DEF) :|2D6 |]
w:year. Be__ year. 